X:1
T:Le temps des Cerises
C:Chanson populaire, Fichier ABC par Bernard Loffet
L:1/8
Q:354
M:3/4
K:G
 z4 D2 | [G2G,2] [G2G,2] [G2G,2] | [G2G,2] G,2 [G2G,2] | [A2D,2] [A2D,2] [A2D,2] | \
 [A2D,2] D,2 [A2D,2] | [B2G,2] [B2G,2] [B2G,2] | [B2G,2] G,2 [B2G,2] | [B2C,2] [B2C,2] [B2C,2] | \
 [B2C,2] C,2 [B2C,2] | [B2G,2] [B2G,2] [c2G,2] | [B2G,2] G,2 G,2 | [A2D,2] D,2 D,2 | \
 [G2G,2] G,2 [G2G,2] | [B2C,2] [B2C,2] [B2C,2] | [B2C,2] C,2 [B2C,2] | [B2C,2] [B2C,2] [B2C,2] | \
 [c2G,2] [B2G,2] [B2G,2] | [B2G,2] [B2G,2] [B2G,2] | [B2E,2] E,2 [B2E,2] | [B2A,2] [A2A,2] [G2E,2] | \
 [A2D,2] D,2 D,2 | D,2 D,2 [D2D,2] | [G2G,2] [G2G,2] [G2G,2] | [G2E,2] E,2 [G2E,2] | \
 [A2A,2] [A2A,2] [A2A,2] | [A2D,2] D,2 [A2D,2] | [B2G,2] [B2G,2] [B2G,2] | [B2E,2] [B2E,2] [B2E,2] | \
 [A2D,2] D,2 [F2D,2] | [G2G,2] G,2 G,2 | G,2 G,2 G,2 | \
Z:Created with TablEdit http://www.tabledit.com/ by Bernard Loffet

